Numix-Circle/48x48/apps/gerbv.svg

<svg xmlns="http://www.w3.org/2000/svg" viewBox="0 0 48 48">
 <defs>
  <linearGradient id="linearGradient4599" x1="1" x2="47" gradientUnits="userSpaceOnUse" gradientTransform="matrix(0,-1,1,0,0,48)">
   <stop style="stop-color:#5d536c;stop-opacity:1"/>
   <stop offset="1" style="stop-color:#675c78;stop-opacity:1"/>
  </linearGradient>
 </defs>
 <path d="m 36.31,5 c 5.859,4.062 9.688,10.831 9.688,18.5 0,12.426 -10.07,22.5 -22.5,22.5 -7.669,0 -14.438,-3.828 -18.5,-9.688 1.037,1.822 2.306,3.499 3.781,4.969 4.085,3.712 9.514,5.969 15.469,5.969 12.703,0 23,-10.298 23,-23 0,-5.954 -2.256,-11.384 -5.969,-15.469 C 39.81,7.306 38.132,6.037 36.31,5 Z m 4.969,3.781 c 3.854,4.113 6.219,9.637 6.219,15.719 0,12.703 -10.297,23 -23,23 -6.081,0 -11.606,-2.364 -15.719,-6.219 4.16,4.144 9.883,6.719 16.219,6.719 12.703,0 23,-10.298 23,-23 0,-6.335 -2.575,-12.06 -6.719,-16.219 z" style="opacity:0.05"/>
 <path d="m 41.28 8.781 c 3.712 4.085 5.969 9.514 5.969 15.469 0 12.703 -10.297 23 -23 23 -5.954 0 -11.384 -2.256 -15.469 -5.969 4.113 3.854 9.637 6.219 15.719 6.219 12.703 0 23 -10.298 23 -23 0 -6.081 -2.364 -11.606 -6.219 -15.719 z" style="opacity:0.1"/>
 <path d="M 31.25,2.375 C 39.865,5.529 46,13.792 46,23.505 c 0,12.426 -10.07,22.5 -22.5,22.5 -9.708,0 -17.971,-6.135 -21.12,-14.75 a 23,23 0 0 0 44.875,-7 23,23 0 0 0 -16,-21.875 z" style="opacity:0.2"/>
 <path d="M 1,24 C 1,11.297 11.297,1 24,1 36.703,1 47,11.297 47,24 47,36.703 36.703,47 24,47 11.297,47 1,36.703 1,24 Z" style="fill:url(#linearGradient4599);fill-opacity:1"/>
 <path d="m 14 12 0 2 13 0 0 2 -6 0 -2 0 0 8 -5 0 0 1 0 1 5 0 0 8 2 0 6 0 0 2 -13 0 0 2 21 0 0 -2 -6 0 0 -2 6 0 0 -2 -6 0 0 -2 0 -2 0 -2 7 0 0 -1 0 -1 -7 0 0 -2 0 -2 0 -2 6 0 0 -2 -6 0 0 -2 6 0 0 -2 -21 0 z m 7 6 6 0 0 3 0 1 0 3 0 1 0 2 0 1 0 1 0 2 -6 0 0 -6 0 -1 0 -1 0 -6 z" style="fill:#000;opacity:0.1;fill-opacity:1;stroke:none"/>
 <path d="m 40.03,7.531 c 3.712,4.084 5.969,9.514 5.969,15.469 0,12.703 -10.297,23 -23,23 C 17.045,46 11.615,43.744 7.53,40.031 11.708,44.322 17.54,47 23.999,47 c 12.703,0 23,-10.298 23,-23 0,-6.462 -2.677,-12.291 -6.969,-16.469 z" style="opacity:0.1"/>
 <rect height="6" width="2" y="13" x="26" style="fill:#bdff79;fill-opacity:1;stroke:none"/>
 <path d="m 18 15 l 0 9 l 0 9 l 2 0 l 0 -9 l 0 -9 l -2 0 z" style="fill:#e25b5b;fill-opacity:1;stroke:none"/>
 <rect height="2" width="14" y="15" x="20" style="fill:#e25b5b;fill-opacity:1;stroke:none"/>
 <path d="m 26 20 l 0 4 l 0 4 l 2 0 l 0 -4 l 0 -4 l -2 0 z" style="fill:#2929af;fill-opacity:1;stroke:none"/>
 <path d="m 26 23 l 0 1 l 0 1 l 9 0 l 0 -1 l 0 -1 l -9 0 z" style="fill:#8d8df5;fill-opacity:1;stroke:none"/>
 <path d="m 13 23 l 0 1 l 0 1 l 7 0 l 0 -1 l 0 -1 l -7 0 z" style="fill:#8d8df5;fill-opacity:1;stroke:none"/>
 <rect height="2" width="21" y="11" x="13" style="fill:#8d8df5;fill-opacity:1;stroke:none"/>
 <rect width="2" height="2" x="26" y="11" style="fill:#353535;opacity:1;fill-opacity:1;stroke:none;fill-rule:nonzero"/>
 <rect width="2" height="2" x="26" y="19" style="fill:#353535;opacity:1;fill-opacity:1;stroke:none;fill-rule:nonzero"/>
 <path d="m 18 23 l 0 1 l 0 1 l 2 0 l 0 -1 l 0 -1 l -2 0 z" style="fill:#353535;opacity:1;fill-opacity:1;stroke:none;fill-rule:nonzero"/>
 <rect x="26" y="-35" width="2" height="6" transform="scale(1,-1)" style="fill:#bdff79;fill-opacity:1;stroke:none"/>
 <rect x="20" y="-33" width="14" height="2" transform="scale(1,-1)" style="fill:#e25b5b;fill-opacity:1;stroke:none"/>
 <rect x="13" y="-37" width="21" height="2" transform="scale(1,-1)" style="fill:#8d8df5;fill-opacity:1;stroke:none"/>
 <rect y="-37" x="26" height="2" width="2" transform="scale(1,-1)" style="fill:#353535;opacity:1;fill-opacity:1;stroke:none;fill-rule:nonzero"/>
 <rect y="-29" x="26" height="2" width="2" transform="scale(1,-1)" style="fill:#353535;opacity:1;fill-opacity:1;stroke:none;fill-rule:nonzero"/>
</svg>

<?xml version="1.0" encoding="UTF-8" standalone="no"?>
<svg
   xmlns:dc="http://purl.org/dc/elements/1.1/"
   xmlns:cc="http://creativecommons.org/ns#"
   xmlns:rdf="http://www.w3.org/1999/02/22-rdf-syntax-ns#"
   xmlns:svg="http://www.w3.org/2000/svg"
   xmlns="http://www.w3.org/2000/svg"
   xmlns:xlink="http://www.w3.org/1999/xlink"
   xmlns:sodipodi="http://sodipodi.sourceforge.net/DTD/sodipodi-0.dtd"
   xmlns:inkscape="http://www.inkscape.org/namespaces/inkscape"
   viewBox="0 0 48 48"
   id="svg2"
   version="1.1"
   inkscape:version="0.91 r13725"
   sodipodi:docname="gerbv.svg">
  <metadata
     id="metadata61">
    <rdf:RDF>
      <cc:Work
         rdf:about="">
        <dc:format>image/svg+xml</dc:format>
        <dc:type
           rdf:resource="http://purl.org/dc/dcmitype/StillImage" />
      </cc:Work>
    </rdf:RDF>
  </metadata>
  <sodipodi:namedview
     pagecolor="#ffffff"
     bordercolor="#666666"
     borderopacity="1"
     objecttolerance="10"
     gridtolerance="10"
     guidetolerance="10"
     inkscape:pageopacity="0"
     inkscape:pageshadow="2"
     inkscape:window-width="1260"
     inkscape:window-height="980"
     id="namedview59"
     showgrid="true"
     inkscape:zoom="4.9166667"
     inkscape:cx="46.631296"
     inkscape:cy="1.2836776"
     inkscape:window-x="10"
     inkscape:window-y="34"
     inkscape:window-maximized="0"
     inkscape:current-layer="svg2"
     inkscape:object-nodes="true">
    <inkscape:grid
       type="xygrid"
       id="grid3454" />
  </sodipodi:namedview>
  <defs
     id="defs4">
    <linearGradient
       inkscape:collect="always"
       id="linearGradient4593">
      <stop
         style="stop-color:#5d536c;stop-opacity:1;"
         offset="0"
         id="stop4595" />
      <stop
         style="stop-color:#675c78;stop-opacity:1"
         offset="1"
         id="stop4597" />
    </linearGradient>
    <linearGradient
       id="linearGradient3764"
       x1="1"
       x2="47"
       gradientUnits="userSpaceOnUse"
       gradientTransform="matrix(0,-1,1,0,-1.5e-6,47.999998)">
      <stop
         style="stop-color:#b5945b;stop-opacity:1"
         id="stop7" />
      <stop
         offset="1"
         style="stop-color:#bb9e69;stop-opacity:1"
         id="stop9" />
    </linearGradient>
    
    <linearGradient
       x1="40.751785"
       y1="43.994072"
       x2="7.5954852"
       y2="4.2193146"
       id="linearGradient2500"
       xlink:href="#linearGradient2937"
       gradientUnits="userSpaceOnUse"
       gradientTransform="matrix(0.889237,0,0,0.7822742,0.6229226,7.6471606)" />
    <linearGradient
       id="linearGradient2937">
      <stop
         style="stop-color:#333333;stop-opacity:1"
         offset="0"
         id="stop2939" />
      <stop
         style="stop-color:#474747;stop-opacity:1"
         offset="1"
         id="stop2941" />
    </linearGradient>
    <linearGradient
       inkscape:collect="always"
       xlink:href="#linearGradient2937"
       id="linearGradient4492-0"
       gradientUnits="userSpaceOnUse"
       gradientTransform="matrix(0.889237,0,0,0.7822742,11.325198,12.294015)"
       x1="40.751785"
       y1="43.994072"
       x2="7.5954852"
       y2="4.2193146" />
    <linearGradient
       inkscape:collect="always"
       xlink:href="#linearGradient2937"
       id="linearGradient4513"
       gradientUnits="userSpaceOnUse"
       gradientTransform="matrix(0.889237,0,0,0.7822742,11.325198,12.294015)"
       x1="40.751785"
       y1="43.994072"
       x2="7.5954852"
       y2="4.2193146" />
    <linearGradient
       inkscape:collect="always"
       xlink:href="#linearGradient4593"
       id="linearGradient4599"
       x1="1"
       y1="24"
       x2="47"
       y2="24"
       gradientUnits="userSpaceOnUse"
       gradientTransform="matrix(0,-1,1,0,0,48)" />
  </defs>
  <path
     inkscape:connector-curvature="0"
     id="path23"
     style="opacity:0.05"
     d="m 36.31,5 c 5.859,4.062 9.688,10.831 9.688,18.5 0,12.426 -10.07,22.5 -22.5,22.5 -7.669,0 -14.438,-3.828 -18.5,-9.688 1.037,1.822 2.306,3.499 3.781,4.969 4.085,3.712 9.514,5.969 15.469,5.969 12.703,0 23,-10.298 23,-23 0,-5.954 -2.256,-11.384 -5.969,-15.469 C 39.81,7.306 38.132,6.037 36.31,5 Z m 4.969,3.781 c 3.854,4.113 6.219,9.637 6.219,15.719 0,12.703 -10.297,23 -23,23 -6.081,0 -11.606,-2.364 -15.719,-6.219 4.16,4.144 9.883,6.719 16.219,6.719 12.703,0 23,-10.298 23,-23 0,-6.335 -2.575,-12.06 -6.719,-16.219 z" />
  <path
     inkscape:connector-curvature="0"
     id="path25"
     style="opacity:0.1"
     d="m 41.28,8.781 c 3.712,4.085 5.969,9.514 5.969,15.469 0,12.703 -10.297,23 -23,23 -5.954,0 -11.384,-2.256 -15.469,-5.969 4.113,3.854 9.637,6.219 15.719,6.219 12.703,0 23,-10.298 23,-23 0,-6.081 -2.364,-11.606 -6.219,-15.719 z" />
  <path
     inkscape:connector-curvature="0"
     id="path27"
     style="opacity:0.2"
     d="M 31.25,2.375 C 39.865,5.529 46,13.792 46,23.505 c 0,12.426 -10.07,22.5 -22.5,22.5 -9.708,0 -17.971,-6.135 -21.12,-14.75 a 23,23 0 0 0 44.875,-7 23,23 0 0 0 -16,-21.875 z" />
  <path
     inkscape:connector-curvature="0"
     id="path31"
     style="fill:url(#linearGradient4599);fill-opacity:1"
     d="M 1,24 C 1,11.297 11.297,1 24,1 36.703,1 47,11.297 47,24 47,36.703 36.703,47 24,47 11.297,47 1,36.703 1,24 Z" />
  <path
     style="opacity:0.1;fill:#000000;fill-opacity:1;stroke:none"
     d="m 14,12 0,2 13,0 0,2 -6,0 -2,0 0,8 -5,0 0,1 0,1 5,0 0,8 2,0 6,0 0,2 -13,0 0,2 21,0 0,-2 -6,0 0,-2 6,0 0,-2 -6,0 0,-2 0,-2 0,-2 7,0 0,-1 0,-1 -7,0 0,-2 0,-2 0,-2 6,0 0,-2 -6,0 0,-2 6,0 0,-2 -21,0 z m 7,6 6,0 0,3 0,1 0,3 0,1 0,2 0,1 0,1 0,2 -6,0 0,-6 0,-1 0,-1 0,-6 z"
     id="rect4601"
     inkscape:connector-curvature="0" />
  <path
     inkscape:connector-curvature="0"
     id="path57"
     style="opacity:0.1"
     d="m 40.03,7.531 c 3.712,4.084 5.969,9.514 5.969,15.469 0,12.703 -10.297,23 -23,23 C 17.045,46 11.615,43.744 7.53,40.031 11.708,44.322 17.54,47 23.999,47 c 12.703,0 23,-10.298 23,-23 0,-6.462 -2.677,-12.291 -6.969,-16.469 z" />
  
  <rect
     id="rect4416"
     height="6"
     width="2"
     y="13"
     x="26"
     style="fill:#bdff79;fill-opacity:1;stroke:none" />
  <path
     style="fill:#e25b5b;fill-opacity:1;stroke:none"
     d="M 18 15 L 18 24 L 18 33 L 20 33 L 20 24 L 20 15 L 18 15 z "
     id="rect4392" />
  <rect
     id="rect4428"
     height="1.9999995"
     width="14.000002"
     y="14.999998"
     x="19.999998"
     style="fill:#e25b5b;fill-opacity:1;stroke:none" />
  <path
     style="fill:#2929af;fill-opacity:1;stroke:none"
     d="M 26 20 L 26 24 L 26 28 L 28 28 L 28 24 L 28 20 L 26 20 z "
     id="rect4440" />
  <path
     style="fill:#8d8df5;fill-opacity:1;stroke:none"
     d="M 26 23 L 26 24 L 26 25 L 35 25 L 35 24 L 35 23 L 26 23 z "
     id="rect4458" />
  <path
     style="fill:#8d8df5;fill-opacity:1;stroke:none"
     d="M 13 23 L 13 24 L 13 25 L 20 25 L 20 24 L 20 23 L 13 23 z "
     id="rect4464" />
  <rect
     id="rect4476"
     height="1.9999977"
     width="20.999998"
     y="11"
     x="13.000002"
     style="fill:#8d8df5;fill-opacity:1;stroke:none" />
  <rect
     style="opacity:1;fill:#353535;fill-opacity:1;fill-rule:nonzero;stroke:none;stroke-width:2.5;stroke-linejoin:round;stroke-miterlimit:4;stroke-dasharray:none;stroke-opacity:1"
     id="rect4452"
     width="2"
     height="2"
     x="26"
     y="11" />
  <rect
     style="opacity:1;fill:#353535;fill-opacity:1;fill-rule:nonzero;stroke:none;stroke-width:2.5;stroke-linejoin:round;stroke-miterlimit:4;stroke-dasharray:none;stroke-opacity:1"
     id="rect4454"
     width="2"
     height="2"
     x="26"
     y="19" />
  <path
     style="opacity:1;fill:#353535;fill-opacity:1;fill-rule:nonzero;stroke:none;stroke-width:2.5;stroke-linejoin:round;stroke-miterlimit:4;stroke-dasharray:none;stroke-opacity:1"
     d="M 18 23 L 18 24 L 18 25 L 20 25 L 20 24 L 20 23 L 18 23 z "
     id="rect4456" />
  <rect
     style="fill:#bdff79;fill-opacity:1;stroke:none"
     x="26"
     y="-35"
     width="2"
     height="5.9999924"
     id="rect4546"
     transform="scale(1,-1)" />
  <rect
     style="fill:#e25b5b;fill-opacity:1;stroke:none"
     x="19.999998"
     y="-33"
     width="14.000002"
     height="1.9999995"
     id="rect4550"
     transform="scale(1,-1)" />
  <rect
     style="fill:#8d8df5;fill-opacity:1;stroke:none"
     x="13.000002"
     y="-37"
     width="20.999998"
     height="1.9999977"
     id="rect4558"
     transform="scale(1,-1)" />
  <rect
     y="-37"
     x="26"
     height="2"
     width="2"
     id="rect4560"
     style="opacity:1;fill:#353535;fill-opacity:1;fill-rule:nonzero;stroke:none;stroke-width:2.5;stroke-linejoin:round;stroke-miterlimit:4;stroke-dasharray:none;stroke-opacity:1"
     transform="scale(1,-1)" />
  <rect
     y="-29"
     x="26"
     height="2"
     width="2"
     id="rect4562"
     style="opacity:1;fill:#353535;fill-opacity:1;fill-rule:nonzero;stroke:none;stroke-width:2.5;stroke-linejoin:round;stroke-miterlimit:4;stroke-dasharray:none;stroke-opacity:1"
     transform="scale(1,-1)" />
</svg>
